dist/svgs/crypto-icons/icons/nvc.svg

<?xml version="1.0" encoding="UTF-8" standalone="yes"?>
<svg xmlns="http://www.w3.org/2000/svg" xmlns:xlink="http://www.w3.org/1999/xlink" width="512px" height="512px" viewBox="0 0 384 384" version="1.1">
  <g id="surface1">
    <path style=" stroke:none;fill-rule:nonzero;fill:rgb(0%,0%,0%);fill-opacity:1;" d="M 267.304688 0.761719 C 205.398438 0.761719 155.226562 18.332031 155.226562 40.007812 L 155.226562 74.832031 C 161.222656 87.289062 203.550781 103.136719 267.304688 103.136719 C 331.046875 103.136719 373.378906 87.289062 379.371094 74.832031 L 379.371094 40.007812 C 379.371094 18.332031 329.191406 0.761719 267.304688 0.761719 Z M 37.09375 310.300781 L 35.507812 307.023438 L 35.507812 303.132812 C 28.75 308.183594 24.863281 313.800781 24.863281 319.742188 L 24.863281 354.570312 C 30.859375 367.023438 73.1875 382.871094 136.9375 382.871094 C 200.683594 382.871094 243.015625 367.023438 249.007812 354.570312 L 249.007812 336.492188 C 226.40625 343.507812 196.601562 347.648438 163.546875 347.648438 C 99.675781 347.648438 47.667969 332.292969 37.09375 310.300781 Z M 37.09375 310.300781 "/>
    <path style=" stroke:none;fill-rule:nonzero;fill:rgb(0%,0%,0%);fill-opacity:1;" d="M 51.472656 293.230469 L 51.472656 303.378906 C 57.46875 315.839844 99.796875 331.683594 163.550781 331.683594 C 227.292969 331.683594 269.625 315.839844 275.621094 303.378906 L 275.621094 268.558594 C 275.621094 266.070312 274.886719 263.648438 273.621094 261.292969 L 273.621094 266.730469 L 272.046875 270.015625 C 261.460938 292.003906 209.46875 307.355469 145.589844 307.355469 C 108.117188 307.355469 74.808594 302.042969 51.472656 293.230469 Z M 228.390625 208.894531 L 228.390625 174.074219 C 228.390625 152.394531 178.210938 134.828125 116.320312 134.828125 C 54.417969 134.828125 4.25 152.394531 4.25 174.074219 L 4.25 208.894531 C 10.238281 221.351562 52.570312 237.199219 116.320312 237.199219 C 180.066406 237.199219 222.398438 221.351562 228.390625 208.894531 Z M 228.390625 208.894531 "/>
    <path style=" stroke:none;fill-rule:nonzero;fill:rgb(0%,0%,0%);fill-opacity:1;" d="M 244.355469 209.726562 L 244.355469 212.539062 L 242.777344 215.816406 C 232.195312 237.804688 180.199219 253.160156 116.320312 253.160156 C 84.578125 253.160156 55.769531 249.363281 33.515625 242.847656 L 33.515625 263.085938 C 39.507812 275.542969 81.835938 291.390625 145.589844 291.390625 C 209.332031 291.390625 251.664062 275.542969 257.660156 263.085938 L 257.660156 228.269531 C 257.660156 221.550781 252.828125 215.242188 244.355469 209.726562 Z M 155.226562 96.40625 L 155.226562 121.246094 C 189.082031 125.402344 219.632812 135.203125 234.589844 151.226562 C 245.464844 152.226562 256.382812 152.722656 267.304688 152.710938 C 331.046875 152.710938 373.378906 136.859375 379.371094 124.40625 L 379.371094 96.40625 C 355.992188 111.371094 311.464844 119.097656 267.304688 119.097656 C 223.132812 119.097656 178.605469 111.371094 155.226562 96.40625 Z M 243.679688 167.917969 C 244.082031 169.910156 244.355469 171.953125 244.355469 174.070312 L 244.355469 191.546875 C 250.617188 194.675781 256.039062 198.214844 260.519531 202.179688 C 262.773438 202.214844 264.988281 202.28125 267.304688 202.28125 C 331.046875 202.28125 373.378906 186.433594 379.371094 173.976562 L 379.371094 145.984375 C 355.992188 160.945312 311.464844 168.671875 267.304688 168.671875 C 259.421875 168.667969 251.542969 168.417969 243.679688 167.917969 Z M 273.621094 228.269531 L 273.621094 238.503906 C 278.953125 242.320312 283.253906 246.597656 286.320312 251.332031 C 339.355469 248.574219 374 234.714844 379.371094 223.550781 L 379.371094 195.550781 C 356.789062 210.003906 314.496094 217.679688 271.847656 218.1875 C 272.964844 221.386719 273.621094 224.722656 273.621094 228.269531 Z M 291.582031 268.558594 L 291.582031 300.609375 C 341.65625 297.238281 374.171875 283.917969 379.371094 273.125 L 379.371094 245.128906 C 360.265625 257.347656 327.0625 264.738281 291.472656 267.039062 C 291.507812 267.542969 291.582031 268.042969 291.582031 268.558594 Z M 264.96875 330.5 L 264.96875 354.0625 C 265.75 354.078125 266.515625 354.109375 267.304688 354.109375 C 329.191406 354.109375 379.371094 336.539062 379.371094 314.863281 L 379.371094 294.695312 C 359.175781 307.621094 323.1875 315.132812 285.296875 316.945312 C 280.648438 321.953125 273.75 326.515625 264.96875 330.5 Z M 264.96875 330.5 "/>
  </g>
</svg>

<svg xmlns="http://www.w3.org/2000/svg" viewBox="0 0 384 384"><path d="M267.305.762c-61.907 0-112.078 17.57-112.078 39.246v34.824c5.996 12.457 48.324 28.305 112.078 28.305 63.742 0 106.074-15.848 112.066-28.305V40.008c0-21.676-50.18-39.246-112.066-39.246zM37.094 310.3l-1.586-3.278v-3.89c-6.758 5.05-10.645 10.668-10.645 16.61v34.827c5.996 12.453 48.325 28.301 112.075 28.301 63.746 0 106.078-15.848 112.07-28.3v-18.079c-22.602 7.016-52.406 11.156-85.461 11.156-63.871 0-115.879-15.355-126.453-37.347zm0 0"/><path d="M51.473 293.23v10.149c5.996 12.46 48.324 28.305 112.078 28.305 63.742 0 106.074-15.844 112.07-28.305v-34.82c0-2.489-.734-4.91-2-7.266v5.437l-1.574 3.286c-10.586 21.988-62.578 37.34-126.457 37.34-37.473 0-70.781-5.313-94.117-14.126zm176.918-84.335v-34.82c0-21.68-50.18-39.247-112.07-39.247-61.903 0-112.071 17.567-112.071 39.246v34.82c5.988 12.458 48.32 28.305 112.07 28.305 63.746 0 106.078-15.847 112.07-28.304zm0 0"/><path d="M244.355 209.727v2.812l-1.578 3.277C232.195 237.805 180.2 253.16 116.32 253.16c-31.742 0-60.55-3.797-82.804-10.312v20.238c5.992 12.457 48.32 28.305 112.074 28.305 63.742 0 106.074-15.848 112.07-28.305V228.27c0-6.72-4.832-13.028-13.305-18.543zm-89.128-113.32v24.84c33.855 4.155 64.406 13.956 79.363 29.98 10.875 1 21.793 1.496 32.715 1.484 63.742 0 106.074-15.852 112.066-28.305v-28c-23.379 14.965-67.906 22.692-112.066 22.692-44.172 0-88.7-7.727-112.078-22.692zm88.453 71.511c.402 1.992.675 4.035.675 6.152v17.477c6.262 3.129 11.684 6.668 16.165 10.633 2.253.035 4.468.101 6.785.101 63.742 0 106.074-15.847 112.066-28.304v-27.993c-23.379 14.961-67.906 22.688-112.066 22.688a375.218 375.218 0 01-23.625-.754zm29.941 60.352v10.234c5.332 3.816 9.633 8.094 12.7 12.828 53.034-2.758 87.679-16.617 93.05-27.781v-28c-22.582 14.453-64.875 22.129-107.523 22.637 1.117 3.199 1.773 6.535 1.773 10.082zm17.961 40.289v32.05c50.074-3.37 82.59-16.691 87.79-27.484v-27.996c-19.106 12.219-52.31 19.61-87.9 21.91.036.504.11 1.004.11 1.52zM264.969 330.5v23.563c.781.015 1.547.046 2.336.046 61.886 0 112.066-17.57 112.066-39.246v-20.168c-20.195 12.926-56.183 20.438-94.074 22.25-4.649 5.008-11.547 9.57-20.328 13.555zm0 0"/></svg>
